images/illustration-articles.svg

<svg xmlns="http://www.w3.org/2000/svg" width="94" height="69" viewBox="0 0 94 69">
  <defs>
    <linearGradient id="illustration-articles-a" x1="50%" x2="50%" y1="0%" y2="100%">
      <stop offset="0%" stop-color="#F5FAFD"/>
      <stop offset="100%" stop-color="#C5ECFF"/>
    </linearGradient>
  </defs>
  <g fill="none" fill-rule="evenodd">
    <path fill="url(#illustration-articles-a)" d="M89.7319727,42.9682259 C89.7319727,19.2408556 70.6019045,0.00526296296 47.0047,0.00526296296 C23.4074955,0.00526296296 4.27742727,19.2408556 4.27742727,42.9682259 C4.27742727,49.2891519 5.64576818,55.2857074 8.08442727,60.6904481 L85.9249727,60.6904481 C88.3625636,55.2857074 89.7319727,49.2891519 89.7319727,42.9682259"/>
    <path d="M8.08442727,60.6904481 C14.79795,75.5728185 29.6937455,85.9311889 47.0047,85.9311889 C64.3156545,85.9311889 79.21145,75.5728185 85.9249727,60.6904481 L8.08442727,60.6904481 Z"/>
    <path stroke="#008BCC" stroke-linecap="round" stroke-linejoin="round" d="M5.34560909,60.6904481 L88.6637909,60.6904481"/>
    <path stroke="#008BCC" stroke-linecap="round" stroke-linejoin="round" d="M0.538790909,60.6904481 L3.20924545,60.6904481"/>
    <path stroke="#008BCC" stroke-linecap="round" stroke-linejoin="round" d="M90.8001545,60.6904481 L93.4706091,60.6904481"/>
    <path fill="#1786BA" d="M58.3275341,29.9718222 C58.3275341,28.1920815 59.7621023,26.7496 61.5320795,26.7496 L37.8184432,26.7496 C35.6948977,26.7496 33.9729886,28.4810074 33.9729886,30.6162667 L33.9729886,66.7051556 L55.1229886,66.7051556 C56.8929659,66.7051556 58.3275341,65.2626741 58.3275341,63.4829333 L58.3275341,33.1940444 L58.3275341,31.2607111 L58.3275341,29.9718222 Z"/>
    <path fill="#020202" d="M61.8387545,67.3493852 C61.8387545,68.2397926 53.3776864,68.9604963 42.9383455,68.9604963 C32.5000727,68.9604963 24.0390045,68.2397926 24.0390045,67.3493852 C24.0390045,66.4600519 32.5000727,65.7382741 42.9383455,65.7382741 C53.3776864,65.7382741 61.8387545,66.4600519 61.8387545,67.3493852" opacity=".15"/>
    <path fill="#1DA1DE" d="M37.8182295,30.6163741 L58.3273205,30.6163741 L58.3273205,29.9719296 C58.3273205,28.1921889 59.7618886,26.7497074 61.5318659,26.7497074 L37.8182295,26.7497074 C35.6946841,26.7497074 33.972775,28.4811148 33.972775,30.6163741 L33.972775,34.4830407 C33.972775,32.3477815 35.6946841,30.6163741 37.8182295,30.6163741"/>
    <path fill="#0C4560" d="M64.736625,29.9718222 C64.736625,27.9837111 62.9452841,26.415563 60.8975795,26.8108222 C59.3754205,27.1051185 58.3275341,28.532563 58.3275341,30.0910444 L58.3275341,33.1940444 L63.6684432,33.1940444 C64.2580795,33.1940444 64.736625,32.7128593 64.736625,32.1199704 L64.736625,29.9718222 Z"/>
    <path fill="#87898C" d="M35.9869386,39.6384889 C35.9869386,40.3506 35.413325,40.9273778 34.7051205,40.9273778 L28.2960295,40.9273778 C27.587825,40.9273778 27.0142114,40.3506 27.0142114,39.6384889 C27.0142114,38.9263778 27.587825,38.3496 28.2960295,38.3496 L34.7051205,38.3496 C35.413325,38.3496 35.9869386,38.9263778 35.9869386,39.6384889"/>
    <path fill="#87898C" d="M35.9869386,42.2161593 C35.9869386,42.9282704 35.413325,43.5050481 34.7051205,43.5050481 L28.2960295,43.5050481 C27.587825,43.5050481 27.0142114,42.9282704 27.0142114,42.2161593 C27.0142114,41.5040481 27.587825,40.9272704 28.2960295,40.9272704 L34.7051205,40.9272704 C35.413325,40.9272704 35.9869386,41.5040481 35.9869386,42.2161593"/>
    <path fill="#65686D" d="M34.7054409,43.505263 C34.7054409,45.2850037 33.2708727,46.7274852 31.5008955,46.7274852 C29.7309182,46.7274852 28.29635,45.2850037 28.29635,43.505263 L34.7054409,43.505263 Z"/>
    <path fill="#00DBA8" d="M62.8135773,55.398163 L53.1999409,45.4382741 L62.8135773,45.4382741 L62.8135773,55.398163 Z M46.6274182,44.0387556 L64.1840545,62.2260519 C64.8516682,62.9188296 66.0181227,62.4430148 66.0181227,61.4784963 L66.0181227,43.2901259 C66.0181227,42.697237 65.5395773,42.2160519 64.9499409,42.2160519 L47.3933045,42.2160519 C46.4501,42.2160519 45.9694182,43.3577926 46.6274182,44.0387556 Z"/>
    <path d="M62.8135773,55.398163 L53.1999409,45.4382741 L62.8135773,45.4382741 L62.8135773,55.398163 Z M46.6274182,44.0387556 L64.1840545,62.2260519 C64.8516682,62.9188296 66.0181227,62.4430148 66.0181227,61.4784963 L66.0181227,43.2901259 C66.0181227,42.697237 65.5395773,42.2160519 64.9499409,42.2160519 L47.3933045,42.2160519 C46.4501,42.2160519 45.9694182,43.3577926 46.6274182,44.0387556 Z"/>
    <path fill="#1DA1DE" d="M52.5082932,60.2609259 C53.000725,60.2609259 53.2090205,60.8505926 52.8607932,61.2007407 C52.2786341,61.783963 51.9186568,62.5905926 51.9186568,63.4831481 C51.9186568,65.2628889 53.353225,66.7053704 55.1232023,66.7053704 L30.887225,66.7053704 C29.3372932,66.7053704 27.9166114,65.6517037 27.6249977,64.1211481 C27.2319068,62.0610741 28.7903841,60.2609259 30.7675886,60.2609259 L52.5082932,60.2609259 Z"/>
    <path fill="#FFE600" d="M39.1002614,26.7496 C39.1002614,22.1729704 36.0516705,19.0162667 31.5012159,19.0162667 C26.9496932,19.0162667 23.7184432,22.2653407 23.7184432,26.8419704 C23.7184432,30.8633037 28.2048068,35.1273778 28.2048068,38.3496 L34.6138977,38.3496 C34.6138977,36.0478593 39.1002614,31.0706 39.1002614,26.7496"/>
    <path fill="#FFF48C" d="M31.5003614,22.8828259 C35.3276568,22.8828259 38.0824977,25.1190481 38.8665432,28.5496407 C39.0107477,27.9427889 39.100475,27.3402333 39.100475,26.7494926 C39.100475,22.172863 36.0518841,19.0161593 31.5003614,19.0161593 C26.9499068,19.0161593 23.7186568,22.2652333 23.7186568,26.841863 C23.7186568,27.4186407 23.8179977,28.001863 23.9771568,28.5850852 C24.8178159,25.1620111 27.6933614,22.8828259 31.5003614,22.8828259"/>
    <path stroke="#E6CF00" stroke-linecap="round" stroke-linejoin="round" d="M30.7681227,37.3493852 L27.9160773,28.7460519 C27.7077818,28.1187926 27.94385,27.428163 28.4907591,27.0608296 C29.0697136,26.6730889 29.8409409,26.7504222 30.3323045,27.2444963 C30.9272818,27.8427556 31.8907818,27.8427556 32.4857591,27.2444963 C32.9781909,26.7504222 33.74835,26.6730889 34.3273045,27.0608296 C34.8752818,27.428163 35.1102818,28.1187926 34.9019864,28.7460519 L32.0499409,37.3493852"/>
    <path stroke="#00AED9" stroke-linecap="round" stroke-linejoin="round" d="M75.6317591,20.627163 L75.6317591,19.6604963"/>
    <path stroke="#00AED9" stroke-linecap="round" stroke-linejoin="round" d="M77.6711318,21.4767556 L78.3515636,20.7936444"/>
    <path stroke="#00AED9" stroke-linecap="round" stroke-linejoin="round" d="M78.5160636,23.5273778 L79.4774273,23.5273778"/>
    <path stroke="#00AED9" stroke-linecap="round" stroke-linejoin="round" d="M77.6711318,25.578 L78.3515636,26.2611111"/>
    <path stroke="#00AED9" stroke-linecap="round" stroke-linejoin="round" d="M75.6317591,26.4275926 L75.6317591,27.3942593"/>
    <path stroke="#00AED9" stroke-linecap="round" stroke-linejoin="round" d="M73.5923864,25.578 L72.9130227,26.2611111"/>
    <path stroke="#00AED9" stroke-linecap="round" stroke-linejoin="round" d="M72.7479886,23.5273778 L71.786625,23.5273778"/>
    <path stroke="#00AED9" stroke-linecap="round" stroke-linejoin="round" d="M73.5923864,21.4767556 L72.9130227,20.7936444"/>
    <g stroke="#00DBA8" stroke-linecap="round" stroke-linejoin="round" transform="translate(18 50)">
      <path d="M3.29344318,5.36430741 L3.29344318,0.208751852"/>
      <path d="M0.729913636,2.78663704 L5.85718636,2.78663704"/>
    </g>
    <g stroke="#00AED9" stroke-linecap="round" stroke-linejoin="round" transform="translate(24 11)">
      <path d="M2.23197273,3.17192963 L2.23197273,0.594151852"/>
      <path d="M0.949940909,1.88282593 L3.51357727,1.88282593"/>
    </g>
    <path stroke="#00DBA8" stroke-linecap="round" stroke-linejoin="round" d="M62.1730955,22.5608185 L62.1730955,19.9830407"/>
    <path stroke="#00DBA8" stroke-linecap="round" stroke-linejoin="round" d="M60.8910636,21.2717148 L63.4547,21.2717148"/>
    <path stroke="#B973FF" stroke-linecap="round" stroke-linejoin="round" d="M10.2543955,34.7572481 C10.1529182,34.9495074 10.1582591,35.1815074 10.2704182,35.3673222 C10.3815091,35.5542111 10.5823273,35.669137 10.7981,35.669137 L15.9745091,35.669137 C16.19135,35.669137 16.3921682,35.5542111 16.5032591,35.3673222 C16.61435,35.1815074 16.6196909,34.9495074 16.5182136,34.7572481 L13.9300091,29.8777296 C13.8231909,29.6758037 13.6148955,29.549063 13.3863045,29.549063 C13.1587818,29.549063 12.9494182,29.6758037 12.8426,29.8777296 L10.2543955,34.7572481 Z"/>
    <path stroke="#4ACFFF" stroke-linecap="round" stroke-linejoin="round" d="M50.0731591,22.8948556 C44.2205909,21.1194111 40.9070909,14.9101889 42.6727955,9.02533704 C44.0849318,4.31767037 49.0252727,1.65181852 53.7071136,3.07174444 C57.4532273,4.20811481 59.5735682,8.18218889 58.4434318,11.9489667 C57.53975,14.9617444 54.3779318,16.6673741 51.3816818,15.7587074 C48.9836136,15.0315593 47.6270227,12.4881519 48.3501818,10.0779296 C48.9291364,8.14889259 50.9522727,7.05763333 52.8707273,7.63870741 C54.4046364,8.10378148 55.2730682,9.73207778 54.8105455,11.2755222 C54.4398864,12.5096333 53.1441818,13.2077815 51.9179091,12.8361519"/>
    <path stroke="#804BB5" stroke-linecap="round" stroke-linejoin="round" d="M71.8055318,42.8607111 L71.8055318,41.6824519 C71.8055318,40.9703407 72.3791455,40.393563 73.08735,40.393563 L74.1491227,40.393563 C74.8573273,40.393563 75.4309409,39.8167852 75.4309409,39.1046741 L75.4309409,38.0370444 C75.4309409,37.3249333 76.0045545,36.7481556 76.7127591,36.7481556 L77.7745318,36.7481556 C78.4827364,36.7481556 79.05635,36.1703037 79.05635,35.4592667 L79.05635,34.391637 C79.05635,33.6795259 79.6299636,33.1027481 80.3381682,33.1027481 L81.3999409,33.1027481 C82.1081455,33.1027481 82.6817591,32.5248963 82.6817591,31.8138593 L82.6817591,30.7462296"/>
    <path stroke="#4ACFFF" stroke-linecap="round" stroke-linejoin="round" d="M41.6637909,34.4831481 L53.8410636,34.4831481"/>
    <path stroke="#4ACFFF" stroke-linecap="round" stroke-linejoin="round" d="M39.1002614,38.3493852 L53.8411705,38.3493852"/>
    <path stroke="#FFF" stroke-linecap="round" stroke-linejoin="round" d="M37.8182295,46.0829333 L43.5864114,46.0829333"/>
    <path stroke="#FFF" stroke-linecap="round" stroke-linejoin="round" d="M37.8182295,49.9497074 L47.4318659,49.9497074"/>
    <path stroke="#FFF" stroke-linecap="round" stroke-linejoin="round" d="M37.8182295,53.8164815 L51.9182295,53.8164815"/>
  </g>
</svg>

<svg xmlns="http://www.w3.org/2000/svg" width="94" height="69" viewBox="0 0 94 69"><defs><linearGradient id="a" x1="50%" x2="50%" y1="0%" y2="100%"><stop offset="0%" stop-color="#F5FAFD"/><stop offset="100%" stop-color="#C5ECFF"/></linearGradient></defs><g fill="none" fill-rule="evenodd"><path fill="url(#a)" d="M89.732 42.968c0-23.727-19.13-42.963-42.727-42.963-23.598 0-42.728 19.236-42.728 42.963 0 6.321 1.369 12.318 3.807 17.722h77.841a42.995 42.995 0 0 0 3.807-17.722"/><path d="M8.084 60.69c6.714 14.883 21.61 25.241 38.92 25.241 17.312 0 32.207-10.358 38.921-25.24H8.085z"/><path stroke="#008BCC" stroke-linecap="round" stroke-linejoin="round" d="M5.346 60.69h83.318m-88.125 0h2.67m87.591 0h2.67"/><path fill="#1786BA" d="M58.328 29.972a3.213 3.213 0 0 1 3.204-3.222H37.818c-2.123 0-3.845 1.731-3.845 3.866v36.09h21.15a3.213 3.213 0 0 0 3.205-3.223V29.97z"/><path fill="#020202" d="M61.839 67.35c0 .89-8.461 1.61-18.9 1.61-10.439 0-18.9-.72-18.9-1.61 0-.89 8.461-1.612 18.9-1.612 10.439 0 18.9.722 18.9 1.611" opacity=".15"/><path fill="#1DA1DE" d="M37.818 30.616h20.51v-.644a3.213 3.213 0 0 1 3.204-3.222H37.818c-2.123 0-3.845 1.731-3.845 3.866v3.867c0-2.135 1.722-3.867 3.845-3.867"/><path fill="#0C4560" d="M64.737 29.972a3.213 3.213 0 0 0-3.84-3.161c-1.522.294-2.57 1.722-2.57 3.28v3.103h5.341c.59 0 1.069-.481 1.069-1.074v-2.148z"/><path fill="#87898C" d="M35.987 39.638c0 .713-.574 1.29-1.282 1.29h-6.409a1.285 1.285 0 0 1-1.282-1.29c0-.712.574-1.288 1.282-1.288h6.41c.707 0 1.28.576 1.28 1.288"/><path fill="#87898C" d="M35.987 42.216c0 .712-.574 1.289-1.282 1.289h-6.409a1.285 1.285 0 0 1-1.282-1.289c0-.712.574-1.289 1.282-1.289h6.41c.707 0 1.28.577 1.28 1.29"/><path fill="#65686D" d="M34.705 43.505a3.213 3.213 0 0 1-3.204 3.222 3.213 3.213 0 0 1-3.205-3.222h6.41z"/><path fill="#00DBA8" d="M62.814 55.398l-9.614-9.96h9.614v9.96zm-16.187-11.36l17.557 18.188c.668.693 1.834.217 1.834-.748V43.29c0-.593-.478-1.074-1.068-1.074H47.393c-.943 0-1.424 1.142-.766 1.823z"/><path d="M62.814 55.398l-9.614-9.96h9.614v9.96zm-16.187-11.36l17.557 18.188c.668.693 1.834.217 1.834-.748V43.29c0-.593-.478-1.074-1.068-1.074H47.393c-.943 0-1.424 1.142-.766 1.823z"/><path fill="#1DA1DE" d="M52.508 60.26c.493 0 .701.59.353.94a3.22 3.22 0 0 0-.942 2.283 3.213 3.213 0 0 0 3.204 3.222H30.887c-1.55 0-2.97-1.053-3.262-2.584-.393-2.06 1.165-3.86 3.143-3.86h21.74z"/><path fill="#FFE600" d="M39.1 26.75c0-4.577-3.048-7.734-7.599-7.734s-7.783 3.25-7.783 7.826c0 4.021 4.487 8.285 4.487 11.508h6.409c0-2.302 4.486-7.28 4.486-11.6"/><path fill="#FFF48C" d="M31.5 22.883c3.828 0 6.582 2.236 7.367 5.667a7.82 7.82 0 0 0 .233-1.8c0-4.577-3.048-7.734-7.6-7.734-4.55 0-7.781 3.25-7.781 7.826 0 .577.099 1.16.258 1.743.84-3.423 3.716-5.702 7.523-5.702"/><path stroke="#E6CF00" stroke-linecap="round" stroke-linejoin="round" d="M30.768 37.35l-2.852-8.604a1.473 1.473 0 0 1 .575-1.685 1.455 1.455 0 0 1 1.841.183 1.516 1.516 0 0 0 2.154 0 1.455 1.455 0 0 1 1.841-.183c.548.367.783 1.058.575 1.685L32.05 37.35"/><path stroke="#00AED9" stroke-linecap="round" stroke-linejoin="round" d="M75.632 20.627v-.967m2.04 1.817l.68-.683m.164 2.733h.961m-1.806 2.051l.68.683m-2.72.167v.966m-2.039-1.816l-.679.683m-.165-2.734h-.961m1.805-2.05l-.679-.683"/><g stroke="#00DBA8" stroke-linecap="round" stroke-linejoin="round"><path d="M21.293 55.364V50.21m-2.563 2.578h5.127"/></g><g stroke="#00AED9" stroke-linecap="round" stroke-linejoin="round"><path d="M26.232 14.172v-2.578m-1.282 1.289h2.564"/></g><path stroke="#00DBA8" stroke-linecap="round" stroke-linejoin="round" d="M62.173 22.56v-2.577m-1.282 1.289h2.564"/><path stroke="#B973FF" stroke-linecap="round" stroke-linejoin="round" d="M10.254 34.757a.62.62 0 0 0 .544.912h5.177a.616.616 0 0 0 .528-.302.624.624 0 0 0 .015-.61l-2.588-4.88a.615.615 0 0 0-1.087 0l-2.589 4.88z"/><path stroke="#4ACFFF" stroke-linecap="round" stroke-linejoin="round" d="M50.073 22.895c-5.852-1.776-9.166-7.985-7.4-13.87 1.412-4.707 6.352-7.373 11.034-5.953 3.746 1.136 5.867 5.11 4.736 8.877-.903 3.013-4.065 4.718-7.061 3.81-2.398-.727-3.755-3.27-3.032-5.681a3.625 3.625 0 0 1 4.52-2.44 2.921 2.921 0 0 1 1.94 3.638 2.32 2.32 0 0 1-2.892 1.56"/><path stroke="#804BB5" stroke-linecap="round" stroke-linejoin="round" d="M71.806 42.86v-1.178c0-.712.573-1.288 1.281-1.288h1.062c.708 0 1.282-.577 1.282-1.29v-1.067c0-.712.574-1.289 1.282-1.289h1.062c.708 0 1.281-.578 1.281-1.289v-1.067c0-.712.574-1.29 1.282-1.29H81.4c.708 0 1.282-.577 1.282-1.288v-1.068"/><path stroke="#4ACFFF" stroke-linecap="round" stroke-linejoin="round" d="M41.664 34.483H53.84m-14.74 3.866h14.74"/><path stroke="#FFF" stroke-linecap="round" stroke-linejoin="round" d="M37.818 46.083h5.768m-5.768 3.867h9.614m-9.614 3.866h14.1"/></g></svg>
